Catalina-dark/actions/22/archive-remove.svg

<?xml version="1.0" encoding="UTF-8" standalone="no"?>
<svg
   xmlns:dc="http://purl.org/dc/elements/1.1/"
   xmlns:cc="http://creativecommons.org/ns#"
   xmlns:rdf="http://www.w3.org/1999/02/22-rdf-syntax-ns#"
   xmlns:svg="http://www.w3.org/2000/svg"
   xmlns="http://www.w3.org/2000/svg"
   xmlns:sodipodi="http://sodipodi.sourceforge.net/DTD/sodipodi-0.dtd"
   xmlns:inkscape="http://www.inkscape.org/namespaces/inkscape"
   viewBox="0 0 22 22"
   id="svg2"
   version="1.1"
   inkscape:version="0.91 r13725"
   sodipodi:docname="archive-remove.svg">
  <metadata
     id="metadata10">
    <rdf:RDF>
      <cc:Work
         rdf:about="">
        <dc:format>image/svg+xml</dc:format>
        <dc:type
           rdf:resource="http://purl.org/dc/dcmitype/StillImage" />
      </cc:Work>
    </rdf:RDF>
  </metadata>
  <sodipodi:namedview
     pagecolor="#ffffff"
     bordercolor="#666666"
     borderopacity="1"
     objecttolerance="10"
     gridtolerance="10"
     guidetolerance="10"
     inkscape:pageopacity="0"
     inkscape:pageshadow="2"
     inkscape:window-width="640"
     inkscape:window-height="480"
     id="namedview8"
     showgrid="false"
     inkscape:zoom="28.954545"
     inkscape:cx="4.8524333"
     inkscape:cy="11"
     inkscape:current-layer="svg2" />
  <defs
     id="defs3051">
    <style
       type="text/css"
       id="current-color-scheme">
      .ColorScheme-Text {
        color:#f2f2f2
      }
      </style>
  </defs>
  <path
     style="color:#f2f2f2;fill:currentColor;fill-opacity:1;stroke:none"
     d="M 3.8867188 3 C 3.3942209 3 3 3.3575813 3 3.8007812 L 3 18.199219 C 3 18.642419 3.3942209 19 3.8867188 19 L 18.113281 19 C 18.605779 19 19 18.642419 19 18.199219 L 19 3.8007812 C 19 3.3575812 18.605779 3 18.113281 3 L 3.8867188 3 z M 9.3710938 8 C 9.5058038 8 9.6206238 8.046295 9.7148438 8.140625 L 11.199219 9.6269531 L 12.683594 8.140625 C 12.777894 8.046325 12.892584 8 13.027344 8 C 13.161994 8 13.276814 8.046295 13.371094 8.140625 L 14.058594 8.828125 C 14.152794 8.922425 14.199219 9.037165 14.199219 9.171875 C 14.199219 9.306575 14.152924 9.421395 14.058594 9.515625 L 12.572266 11 L 14.058594 12.484375 C 14.152894 12.578675 14.199219 12.693415 14.199219 12.828125 C 14.199219 12.962825 14.152924 13.077645 14.058594 13.171875 L 13.371094 13.859375 C 13.276894 13.953575 13.161994 14 13.027344 14 C 12.892514 14 12.777884 13.953695 12.683594 13.859375 L 11.199219 12.373047 L 9.7148438 13.859375 C 9.6205437 13.953575 9.5058037 14 9.3710938 14 C 9.2364537 14 9.1216338 13.953695 9.0273438 13.859375 L 8.3398438 13.171875 C 8.2455437 13.077575 8.1992187 12.962825 8.1992188 12.828125 C 8.1992188 12.693415 8.2456238 12.578655 8.3398438 12.484375 L 9.8261719 11 L 8.3398438 9.515625 C 8.2455437 9.421325 8.1992187 9.306575 8.1992188 9.171875 C 8.1992188 9.037165 8.2456238 8.922345 8.3398438 8.828125 L 9.0273438 8.140625 C 9.1216437 8.046325 9.2364537 8 9.3710938 8 z "
     id="path6" />
</svg>

<svg width="22" height="22" version="1.1" viewBox="3 3 16 16" xmlns="http://www.w3.org/2000/svg">
<defs>
<style id="current-color-scheme" type="text/css">.ColorScheme-Text {
        color:#f2f2f2
      }</style>
</defs>
<path d="m3.8867 3c-0.4925 0-0.88672 0.35758-0.88672 0.80078v14.398c0 0.4432 0.39422 0.80078 0.88672 0.80078h14.227c0.4925 0 0.88672-0.35758 0.88672-0.80078v-14.398c0-0.4432-0.39422-0.80078-0.88672-0.80078h-14.227zm5.4844 5c0.13471 0 0.24953 0.046295 0.34375 0.14062l1.4844 1.4863 1.4844-1.4863c0.0943-0.0943 0.20899-0.14062 0.34375-0.14062 0.13465 0 0.24947 0.046295 0.34375 0.14062l0.6875 0.6875c0.0942 0.0943 0.14062 0.20904 0.14062 0.34375 0 0.1347-0.046295 0.24952-0.14062 0.34375l-1.4863 1.4844 1.4863 1.4844c0.0943 0.0943 0.14062 0.20904 0.14062 0.34375 0 0.1347-0.046295 0.24952-0.14062 0.34375l-0.6875 0.6875c-0.0942 0.0942-0.2091 0.14062-0.34375 0.14062-0.13483 0-0.24946-0.046305-0.34375-0.14062l-1.4844-1.4863-1.4844 1.4863c-0.0943 0.0942-0.20904 0.14062-0.34375 0.14062-0.13464 0-0.24946-0.046305-0.34375-0.14062l-0.6875-0.6875c-0.0943-0.0943-0.14063-0.20905-0.14062-0.34375 0-0.13471 0.046405-0.24947 0.14062-0.34375l1.4863-1.4844-1.4863-1.4844c-0.0943-0.0943-0.14063-0.20905-0.14062-0.34375 0-0.13471 0.046405-0.24953 0.14062-0.34375l0.6875-0.6875c0.0943-0.0943 0.20911-0.14062 0.34375-0.14062z" color="#f2f2f2" fill="currentColor"/>
</svg>
